polaris-icons/icons/new-icons/Column1Major.svg

<svg width="20" height="20" viewBox="0 0 20 20" fill="none" xmlns="http://www.w3.org/2000/svg">
<path fill-rule="evenodd" clip-rule="evenodd" d="M13 4.5H7C6.17157 4.5 5.5 5.17157 5.5 6V14C5.5 14.8284 6.17157 15.5 7 15.5H13C13.8284 15.5 14.5 14.8284 14.5 14V6C14.5 5.17157 13.8284 4.5 13 4.5ZM7 3C5.34315 3 4 4.34315 4 6V14C4 15.6569 5.34315 17 7 17H13C14.6569 17 16 15.6569 16 14V6C16 4.34315 14.6569 3 13 3H7Z" fill="#4A4A4A"/>
</svg>

<svg viewBox="0 0 20 20" xmlns="http://www.w3.org/2000/svg"><path fill-rule="evenodd" d="M13 4.5h-6a1.5 1.5 0 0 0-1.5 1.5v8a1.5 1.5 0 0 0 1.5 1.5h6a1.5 1.5 0 0 0 1.5-1.5v-8a1.5 1.5 0 0 0-1.5-1.5Zm-6-1.5a3 3 0 0 0-3 3v8a3 3 0 0 0 3 3h6a3 3 0 0 0 3-3v-8a3 3 0 0 0-3-3h-6Z" fill="#5C5F62"/></svg>
